X: 11554
T: ARDROSSAN CASTLE
Q: "Hornpipe."
%R: hornpipe, reel
B: W. Hamilton "Universal Tune-Book" Vol. 1 Glasgow 1844 p.155 #4
S: http://imslp.org/wiki/Hamilton's_Universal_Tune-Book_(Various)
Z: 2016 John Chambers <jc:trillian.mit.edu>
M: C
L: 1/16
K: C
% - - - - - - - - - - - - - - - - - - - - - - - - -
G2 |\
c2e2B2d2 cBcA G2F2 | E2A2G2c2 BAdc B2d2 |\
c2e2B2d2 AcBA G2E2 | F2A2d2f2 ecdB c2ef |\
g2e2c2e2 dBcA G2E2 | F2GA G2AB cAdc B2d2 |
e2fg f2ga AcBA G2E2 | F2A2d2f2 ecdB c2 :|\
|: ef |\
g2e2c2e2 g^fga g2e2 | a2f2d2e2 fdec d2ef |\
e2a2g2f2 ecBc d2f2 |
e2c2d2B2 cedB c2ef |\
g2^f2g2c'2 bgaf g2e=f | g2ec f2dB cAdc B2d2 |\
e2fg f2ga AcBA G2E2 | F2A2d2f2 ecdB c2 |]
% - - - - - - - - - - - - - - - - - - - - - - - - -

%%sep 1 1 500
%%sep 1 1 500

